svgs/solid/plane-prop.svg

<svg xmlns="http://www.w3.org/2000/svg" viewBox="0 0 576 512"><!--! Font Awesome Pro 6.1.1 by @fontawesome - https://fontawesome.com License - https://fontawesome.com/license (Commercial License) Copyright 2022 Fonticons, Inc. --><path d="M240 384L231.7 317.6L121.7 306.6L113.8 369.1C112.8 377.1 105.9 384 97.88 384H62.12C54.06 384 47.25 377.1 46.25 369.1L35.97 287.8C34.67 287.9 33.34 288 32 288C14.33 288 0 273.7 0 256C0 238.3 14.33 224 32 224C33.34 224 34.67 224.1 35.97 224.2L46.25 142C47.25 134 54.06 128 62.12 128H97.88C105.9 128 112.8 134 113.8 142L121.7 205.4L231.7 194.4L240 128H224C206.3 128 192 113.7 192 96C192 78.33 206.3 64 224 64H248L254.2 14.02C255.2 6.009 262.1 0 270.1 0H305.9C313.9 0 320.8 6.009 321.8 14.02L328 64H368V48C368 39.16 375.2 32 384 32C392.8 32 400 39.16 400 48V80C408.8 80 416 87.16 416 96C416 104.8 408.8 112 400 112V144C400 152.8 392.8 160 384 160C375.2 160 368 152.8 368 144V128H336L344 192H482.3C516.5 192 576 221 576 256C576 292 516.5 320 482.3 320H344L336 384H368V368C368 359.2 375.2 352 384 352C392.8 352 400 359.2 400 368V400C408.8 400 416 407.2 416 416C416 424.8 408.8 432 400 432V464C400 472.8 392.8 480 384 480C375.2 480 368 472.8 368 464V448H328L321.8 497.1C320.8 505.1 313.9 512 305.9 512H270.1C262.1 512 255.2 505.1 254.2 497.1L248 448H224C206.3 448 192 433.7 192 416C192 398.3 206.3 384 224 384H240z"/></svg>

<svg xmlns="http://www.w3.org/2000/svg" viewBox="0 0 576 512"><!--! Font Awesome Pro 6.4.2 by @fontawesome - https://fontawesome.com License - https://fontawesome.com/license (Commercial License) Copyright 2023 Fonticons, Inc. --><path d="M240 384l-8.3-66.4-110-11L113.8 370c-1 8-7.8 14-15.9 14H62.1c-8.1 0-14.9-6-15.9-14L36 287.8c-1.3 .2-2.6 .2-4 .2c-17.7 0-32-14.3-32-32s14.3-32 32-32c1.3 0 2.7 .1 4 .2L46.2 142c1-8 7.8-14 15.9-14H97.9c8.1 0 14.9 6 15.9 14l7.9 63.4 110-11L240 128H224c-17.7 0-32-14.3-32-32s14.3-32 32-32h24l6.2-50c1-8 7.8-14 15.9-14h35.8c8.1 0 14.9 6 15.9 14L328 64h40V48c0-8.8 7.2-16 16-16s16 7.2 16 16V80c8.8 0 16 7.2 16 16s-7.2 16-16 16v32c0 8.8-7.2 16-16 16s-16-7.2-16-16V128H336l8 64H482.3c34.2 0 93.7 29 93.7 64c0 36-59.5 64-93.7 64H344l-8 64h32V368c0-8.8 7.2-16 16-16s16 7.2 16 16v32c8.8 0 16 7.2 16 16s-7.2 16-16 16v32c0 8.8-7.2 16-16 16s-16-7.2-16-16V448H328l-6.2 50c-1 8-7.8 14-15.9 14H270.1c-8.1 0-14.9-6-15.9-14L248 448H224c-17.7 0-32-14.3-32-32s14.3-32 32-32h16z"/></svg>
